Simply-Blue-Circles/symbolic/categories/applications-internet-symbolic.svg

<svg xmlns="http://www.w3.org/2000/svg" width="24" height="24" viewBox="0 0 6.35 6.35"><path style="line-height:normal;text-indent:0;text-align:start;text-decoration-line:none;text-transform:none;marker:none" d="M3.04 1.156v.004a2.018 2.018 0 0 0-1.88 1.88h-.004v.268h.005a2.019 2.019 0 0 0 1.88 1.88v.004h.269v-.004a2.017 2.017 0 0 0 1.878-1.88h.006V3.04h-.006A2.018 2.018 0 0 0 3.31 1.16v-.003h-.135zm0 .286v.79h-.66c.145-.419.384-.716.66-.79zm.27 0c.276.074.514.371.659.79h-.66zm-.89.154a2.14 2.14 0 0 0-.317.637H1.7a1.76 1.76 0 0 1 .72-.637zm1.51 0c.295.141.544.363.72.637h-.403a2.134 2.134 0 0 0-.317-.637zm-2.37.906h.473c-.036.17-.06.35-.067.538H1.43c.015-.19.06-.37.13-.538zm.745 0h.735v.538h-.804c.007-.19.031-.37.069-.538zm1.005 0h.734c.038.167.062.349.07.538H3.31zm1.007 0h.473c.07.167.115.349.13.538h-.536a3.195 3.195 0 0 0-.067-.538zm-2.887.807h.536c.008.188.03.368.067.538H1.56a1.735 1.735 0 0 1-.13-.538zm.806 0h.804v.538h-.735a3.009 3.009 0 0 1-.07-.538zm1.074 0h.804c-.007.19-.032.37-.07.538H3.31zm1.074 0h.535c-.014.19-.059.37-.129.538h-.473c.036-.17.06-.35.067-.538zM1.7 4.117h.403c.079.247.187.463.317.636a1.758 1.758 0 0 1-.72-.636zm.68 0h.66v.79c-.276-.074-.515-.371-.66-.79zm.93 0h.659c-.145.419-.383.716-.66.79zm.937 0h.403a1.759 1.759 0 0 1-.72.636c.13-.173.238-.39.317-.636z" color="#000" font-weight="400" font-family="Andale Mono" overflow="visible" fill="gray"/></svg>

<?xml version="1.0" encoding="UTF-8" standalone="no"?>
<svg
   xmlns:dc="http://purl.org/dc/elements/1.1/"
   xmlns:cc="http://creativecommons.org/ns#"
   xmlns:rdf="http://www.w3.org/1999/02/22-rdf-syntax-ns#"
   xmlns:svg="http://www.w3.org/2000/svg"
   xmlns="http://www.w3.org/2000/svg"
   xmlns:sodipodi="http://sodipodi.sourceforge.net/DTD/sodipodi-0.dtd"
   xmlns:inkscape="http://www.inkscape.org/namespaces/inkscape"
   width="24"
   height="24"
   viewBox="0 0 6.35 6.35"
   version="1.1"
   id="svg4"
   sodipodi:docname="applications-internet-symbolic.svg"
   inkscape:version="0.92.4 (5da689c313, 2019-01-14)">
  <metadata
     id="metadata10">
    <rdf:RDF>
      <cc:Work
         rdf:about="">
        <dc:format>image/svg+xml</dc:format>
        <dc:type
           rdf:resource="http://purl.org/dc/dcmitype/StillImage" />
        <dc:title></dc:title>
      </cc:Work>
    </rdf:RDF>
  </metadata>
  <defs
     id="defs8" />
  <sodipodi:namedview
     pagecolor="#ffffff"
     bordercolor="#666666"
     borderopacity="1"
     objecttolerance="10"
     gridtolerance="10"
     guidetolerance="10"
     inkscape:pageopacity="0"
     inkscape:pageshadow="2"
     inkscape:window-width="1085"
     inkscape:window-height="480"
     id="namedview6"
     showgrid="false"
     inkscape:zoom="9.8333333"
     inkscape:cx="1.0677966"
     inkscape:cy="12"
     inkscape:window-x="0"
     inkscape:window-y="25"
     inkscape:window-maximized="0"
     inkscape:current-layer="svg4" />
  <path
     style="color:#000000;font-weight:400;line-height:normal;font-family:'Andale Mono';text-indent:0;text-align:start;text-decoration:none;text-decoration-line:none;text-transform:none;overflow:visible;fill:#808080;marker:none"
     d="M 3.04,1.156 V 1.16 A 2.018,2.018 0 0 0 1.16,3.04 H 1.156 v 0.268 h 0.005 a 2.019,2.019 0 0 0 1.88,1.88 V 5.192 H 3.31 V 5.188 A 2.017,2.017 0 0 0 5.188,3.308 H 5.194 V 3.04 H 5.188 A 2.018,2.018 0 0 0 3.31,1.16 V 1.157 H 3.175 Z m 0,0.286 v 0.79 H 2.38 C 2.525,1.813 2.764,1.516 3.04,1.442 Z m 0.27,0 c 0.276,0.074 0.514,0.371 0.659,0.79 H 3.309 Z M 2.42,1.596 A 2.14,2.14 0 0 0 2.103,2.233 H 1.7 A 1.76,1.76 0 0 1 2.42,1.596 Z m 1.51,0 C 4.225,1.737 4.474,1.959 4.65,2.233 H 4.247 A 2.134,2.134 0 0 0 3.93,1.596 Z M 1.56,2.502 H 2.033 C 1.997,2.672 1.973,2.852 1.966,3.04 H 1.43 C 1.445,2.85 1.49,2.67 1.56,2.502 Z m 0.745,0 H 3.04 V 3.04 H 2.236 C 2.243,2.85 2.267,2.67 2.305,2.502 Z m 1.005,0 H 4.044 C 4.082,2.669 4.106,2.851 4.114,3.04 H 3.31 Z m 1.007,0 H 4.79 C 4.86,2.669 4.905,2.851 4.92,3.04 H 4.384 A 3.195,3.195 0 0 0 4.317,2.502 Z M 1.43,3.309 h 0.536 c 0.008,0.188 0.03,0.368 0.067,0.538 H 1.56 A 1.735,1.735 0 0 1 1.43,3.309 Z m 0.806,0 H 3.04 V 3.847 H 2.305 A 3.009,3.009 0 0 1 2.235,3.309 Z m 1.074,0 H 4.114 C 4.107,3.499 4.082,3.679 4.044,3.847 H 3.31 Z m 1.074,0 H 4.919 C 4.905,3.499 4.86,3.679 4.79,3.847 H 4.317 C 4.353,3.677 4.377,3.497 4.384,3.309 Z M 1.7,4.117 H 2.103 C 2.182,4.364 2.29,4.58 2.42,4.753 A 1.758,1.758 0 0 1 1.7,4.117 Z m 0.68,0 h 0.66 v 0.79 C 2.764,4.833 2.525,4.536 2.38,4.117 Z m 0.93,0 H 3.969 C 3.824,4.536 3.586,4.833 3.309,4.907 Z m 0.937,0 H 4.65 A 1.759,1.759 0 0 1 3.93,4.753 C 4.06,4.58 4.168,4.363 4.247,4.117 Z"
     font-weight="400"
     overflow="visible"
     id="path2"
     inkscape:connector-curvature="0" />
</svg>
